talent/images/icons/arrow-white.svg

<svg width="8" height="13" viewBox="0 0 8 13" fill="none" xmlns="http://www.w3.org/2000/svg">
<path d="M7.44278 5.99279L1.65757 0.207683C1.52376 0.0737724 1.34514 0 1.15469 0C0.964232 0 0.785614 0.0737724 0.651809 0.207683L0.225768 0.633618C-0.0514592 0.911163 -0.0514592 1.36225 0.225768 1.63937L5.08375 6.49736L0.220378 11.3607C0.0865734 11.4946 0.0126953 11.6732 0.0126953 11.8635C0.0126953 12.0541 0.0865734 12.2326 0.220378 12.3666L0.646419 12.7924C0.780329 12.9263 0.958842 13.0001 1.1493 13.0001C1.33975 13.0001 1.51837 12.9263 1.65217 12.7924L7.44278 7.00203C7.5769 6.8677 7.65057 6.68834 7.65014 6.49767C7.65057 6.30627 7.5769 6.12702 7.44278 5.99279Z" fill="white"/>
</svg>

<svg width="8" height="13" fill="none" xmlns="http://www.w3.org/2000/svg"><path d="M7.443 5.993L1.658.208A.706.706 0 001.155 0c-.19 0-.37.074-.503.208L.226.634a.712.712 0 000 1.005l4.858 4.858L.22 11.361a.707.707 0 00-.207.502c0 .191.074.37.207.504l.426.425A.706.706 0 001.15 13c.19 0 .37-.074.503-.208l5.79-5.79a.707.707 0 00.208-.504.707.707 0 00-.207-.505z" fill="#fff"/></svg>
